src/svg/cost.svg

<!-- Generated by IcoMoon.io -->
<svg version="1.1" xmlns="http://www.w3.org/2000/svg" width="32" height="32" viewBox="0 0 32 32">
<title>cost</title>
<path d="M29.577 30.708h-25.47v-30h17.421l8.049 6.319v23.681zM6.13 28.686h21.426v-20.687l-6.727-5.269h-14.699v25.956z"></path>
<path d="M14.431 18.634c0.214 0.953 0.953 1.575 2.061 1.575 1.38 0 1.808-0.661 1.808-1.4 0-0.914-0.486-1.361-2.216-1.847-3.15-0.914-4.064-2.061-4.064-3.811 0-2.255 1.964-3.5 4.219-3.5 3.208 0 4.258 1.653 4.433 3.305h-2.644c-0.136-0.525-0.369-1.361-1.808-1.361-1.205 0-1.536 0.7-1.536 1.283 0 0.817 0.447 1.186 2.43 1.75 2.78 0.778 3.83 1.905 3.83 3.889 0 2.469-1.886 3.675-4.55 3.655-2.819 0-4.452-1.439-4.627-3.519h2.664v-0.019zM15.19 10.43v-1.905h2.216v1.905h-2.216zM15.326 23.573v-2.703h2.236v2.703h-2.236z"></path>
</svg>

<svg xmlns="http://www.w3.org/2000/svg" width="32" height="32"><path d="M29.577 30.708H4.107v-30h17.421l8.049 6.319v23.681zM6.13 28.686h21.426V7.999L20.829 2.73H6.13v25.956z"/><path d="M14.431 18.634c.214.953.953 1.575 2.061 1.575 1.38 0 1.808-.661 1.808-1.4 0-.914-.486-1.361-2.216-1.847-3.15-.914-4.064-2.061-4.064-3.811 0-2.255 1.964-3.5 4.219-3.5 3.208 0 4.258 1.653 4.433 3.305h-2.644c-.136-.525-.369-1.361-1.808-1.361-1.205 0-1.536.7-1.536 1.283 0 .817.447 1.186 2.43 1.75 2.78.778 3.83 1.905 3.83 3.889 0 2.469-1.886 3.675-4.55 3.655-2.819 0-4.452-1.439-4.627-3.519h2.664v-.019zm.759-8.204V8.525h2.216v1.905H15.19zm.136 13.143V20.87h2.236v2.703h-2.236z"/></svg>
